X:1
T:Concerto in D minor
T:Concerto in D minor
T:Rv 248
T:A. Vivaldi
C:A. Vivaldi
%%score ( 1 2 )
L:1/8
M:3/4
K:F
V:1 treble nm="Violín" snm="Vln."
V:2 treble 
V:1
 z2 z/ (A/=B/^c/ d/e/f/g/) | af dA FD | A,D FD Ad | ^c2 z/ (A/=B/c/ d/e/f/g/) | af dA FD | %5
 A,D FD d^G | (^G2 A2) z2 | ^fg/a/ cd/_e/ AB/c/ | B/G/A/B/ c/d/e/f/ g z | ef/g/ Bc/d/ GA/B/ | %10
 A/(F/G/A/ B/c/d/e/ f) z | a2 z/ g/f/e/ f^c | d2 z/ c/B/A/ B^F | G2 z/ F/E/D/ E=B, | ^C2 z2 z2 | %15
{B,} ((A,/G,/A,)){B,} (A,/G,/A,){B,} (A,/G,/A,) | G3 F/E/ FE/D/ | %17
{B,} (A,/G,/A,){B,} (A,/G,/A,){B,} (A,/G,/A,) | g3 f/e/ fe/d/ | a3 g/f/ gf/e/ | b3 a/g/ ag/f/ | %21
 e2 z/ (A/=B/^c/ d/e/f/g/) | ab ^ca Aa | Dd Td2- d/^c/d/e/ | ff Tf2- f/e/f/g/ | %25
 aa Ta2- a/=b/^c'/d'/ | e'>d' ^c'>=b a>g | Tg3 f/e/ f2 | (D/A/f/a/) (D/A/f/a/) (D/A/f/a/) | %29
 (D/B/f/a/) (D/B/f/a/) (D/B/f/a/) | (^C/A/e/)g/ (C/A/e/)g/ (C/A/e/)g/ | %31
 (C/A/e/)g/ (C/A/e/)g/ (C/A/e/)g/ | (=B,/G/d/)f/ (B,/G/d/)f/ (B,/G/d/)f/ | %33
 (B,/G/d/)f/ (B,/G/d/)f/ (B,/G/d/)f/ | (A,/E/^c/)e/ (A,/E/c/)e/ (A,/E/c/)e/ | %35
 (D/A/f/)a/ (D/A/f/)a/ (D/A/f/)a/ | (G/d/b/)d'/ (G/d/b/)d'/ (G/d/b/)d'/ | %37
 (G/d/=b/)d'/ (G/d/b/)d'/ (G/d/b/)d'/ | (G/e/c'/)d'/ (G/e/c'/)d'/ (G/e/c'/)d'/ | %39
 (G/e/^c'/)d'/ (G/e/c'/)d'/ (G/e/c'/)d'/ | (A/f/d'/)e'/ (A/f/d'/)e'/ (A/f/d'/)e'/ | %41
 f'2- f'/(e'/d'/)(c'/ =b/)(a/^g/)(^f/ | e/)(d/c/)(=B/ A/)(G/F/)(E/ D/)C/=B,/A,/ | %43
 (^G,/E/=B/)e/ (G,/E/B/)e/ (G,/E/B/)e/ | (A,/E/c/)e/ (A,/E/c/)e/ (A,/E/c/)e/ | %45
 (^G,/E/=B/)e/ (G,/E/B/)e/ (G,/E/B/)e/ | (c2 (3c/)=B/A/ (3d/c/B/ (3e/d/=c/ (3f/e/=d/ | %47
 (^g2 (3g/)^f/=e/ (3a/g/f/ (3=b/a/g/ (3c'/b/a/ | d'2- d'/(.c'/.=b/.a/ .^g/.^f/.e/.d/) | Dc T=B3 A | %50
 A2 z/ (A/=B/c/ d/e/^f/^g/) | aA cA ea | ^ga/=b/ de/f/ =Bc/d/ | c/(A/=B/c/ d/e/^f/^g/ a) z | %54
{F} (E/D/E){F} (E/D/E){F} (E/D/E) | d3 c/=B/ cB/A/ |{F} (E/D/E){F} (E/D/E){F} (E/D/E) | %57
 d3 c/=B/ cB/A/ | e3 d/c/ dc/=B/ | f3 e/d/ ed/c/ | =B2 z/ (E/^F/^G/ A/B/c/d/) | e^g ac Eg | %62
 a/c/=B/c/ E/c/B/c/ A,/c/B/c/ | a/c/=B/c/ E/c/B/c/ A,/c/B/c/ | ^g/=B/A/B/ ^G/B/A/B/ E/B/A/B/ | %65
 ^g/=B/A/B/ ^G/B/A/B/ E/B/A/B/ | a/c/=B/c/ E/c/B/c/ A,/c/B/c/ | a/c/=B/c/ E/c/B/c/ A,/c/B/c/ | %68
 f/d/c/d/ F/d/c/d/ D/d/c/d/ | f/d/c/d/ F/d/c/d/ D/d/c/d/ | g/=B/A/B/ G/B/A/B/ G,/B/A/B/ | %71
 g/=B/A/B/ G/B/A/B/ G,/B/A/B/ | g/c/=B/c/ E/c/B/c/ C/c/B/c/ | g/c/=B/c/ E/c/B/c/ C/c/B/c/ | %74
 b/c/=B/c/ E/c/B/c/ C/c/B/c/ | b/c/=B/c/ E/c/B/c/ C/c/B/c/ | %76
 (a/f/)(g/e/) (f/d/)(e/c/) (d/B/)(c/A/) | (B/G/)(A/F/) (G/E/)(F/D/) (E/C/)(D/B,/) | %78
 A,/F/E/F/ c/F/E/F/ C/F/E/F/ | A,/F/E/F/ c/F/E/F/ C/F/E/F/ | d2- d/(B/d/f/ bg) | %81
 e2- e/(c/e/g/ c'b) | a2- ac'/b/ c'/b/a/g/ | ae fA Ce | fg/a/ AB/c/ Ff | ga/b/ ef/g/ cB | %86
 A/(F/G/A/ B/c/d/e/ f) z |{d} (c/B/c){d} (c/B/c){d} (c/B/c) | b3 a/g/ ag/f/ | %89
{d} (c/B/c){d} (c/B/c){d} (c/B/c) | b3 a/g/ ag/f/ | e2 z/ (C/D/E/ F/G/A/B/) | cd Ec Cc | %93
 (A/d/f/)[Ac]/ [Ac]/[Ac]/[Ac]/[Ac]/ (A/c/f/)c/ | (A/c/f/)[Ac]/ [Ac]/[Ac]/[Ac]/[Ac]/ (A/c/f/)c/ | %95
 (E/c/g/)[Ec]/ [Ec]/[Ec]/[Ec]/[Ec]/ (E/c/g/)c/ | ((E/c/g/))[Ec]/ [Ec]/[Ec]/[Ec]/[Ec]/ (E/c/g/)c/ | %97
 (E/c/b/)[Ec]/ [Ec]/[Ec]/[Ec]/[Ec]/ (E/c/b/)c/ | (E/c/b/)[Ec]/ [Ec]/[Ec]/[Ec]/[Ec]/ (E/c/b/)c/ | %99
 (E/^c/b/)[Ec]/ [Ec]/[Ec]/[Ec]/[Ec]/ (E/c/b/)c/ | (E/^c/a/)[Ec]/ [Ec]/[Ec]/[Ec]/[Ec]/ (E/c/a/)c/ | %101
 (E/^c/g/)[Ec]/ [Ec]/[Ec]/[Ec]/[Ec]/ (E/c/g/)c/ | (D/d/f/)[Dd]/ [Dd]/[Dd]/[Dd]/[Dd]/ D/d/f/d/ | %103
 (A/f/d'/)[Af]/ [Af]/[Af]/[Af]/[Af]/ (A/f/d'/)f/ | (G/d/b/)[Gd]/ [Gd]/[Gd]/[Gd]/[Gd]/ (G/d/b/)d/ | %105
 (G/e/c'/)[Ge]/ [Ge]/[Ge]/[Ge]/[Ge]/ (G/e/c'/)e/ | (c/f/a/)[cf]/ [cf]/[cf]/[cf]/[cf]/ (c/f/a/)f/ | %107
 (A/f/d'/)[Af]/ [Af]/[Af]/[Af]/[Af]/ (A/f/d'/)f/ | (G/d/=b/)[Gd]/ [Gd]/[Gd]/[Gd]/[Gd]/ (G/d/b/)d/ | %109
 (=B/^g/e'/)[Bg]/ [Bg]/[Bg]/[Bg]/[Bg]/ (B/g/e'/)g/ | %110
 (A/e/^c'/)[Ae]/ [Ae]/[Ae]/[Ae]/[Ae]/ (A/e/c'/)e/ | %111
 (A/f/d'/)[Af]/ [Af]/[Af]/[Af]/[Af]/ (A/f/d'/)f/ | %112
 (A/g/e'/)[Ag]/ [Ag]/[Ag]/[Ag]/[Ag]/ (A/g/e'/)g/ | %113
 (A/f/d'/)[Af]/ [Af]/[Af]/[Af]/[Af]/ (A/f/d'/)f/ | [Ae^c']2 z/ (A/=B/^c/ d/e/f/g/) | af dA FD | %116
 A,D FD Ad | ^c2 z/ (A/=B/c/ d/e/f/g/) | af dA FD | A,D FD d^G | (^G2 A2) z2 | %121
!mf! (^f/a/c'-) c'(b/a/ g/f/g/a/) | (b/^f/g/d/ _e/c/d/A/ B/^F/G) | (e/g/b-) b(a/g/ f/e/f/g/) | %124
 (a/e/f/c/ d/B/c/G/ A/E/F) | (f/g/a-) a(g/f/ e/d/e/f/) | (g/a/b-) b(a/g/ f/e/f/g/) | %127
 (a/b/c'-) c'(b/a/ g/f/g/a/) | (=b/^c'/d'-) d'(c'/b/ a/g/a/b/) | %129
 (^c'/d'/e'-) e'(d'/c'/ =b/a/b/c'/) |{e'} (d'/^c'/d'){d'} (=c'/b/c'){c'} (b/a/b) | %131
 (a2 a)(g/f/ e/d/^c/d/) | (.A.g) Te3 d |!f! [da]2 z/ g/f/e/ f^c | d2 z/ c/B/A/ B^F | %135
 G2 z/ F/E/D/ E=B, | ^C2 z4 |{B,} ((A,/G,/A,)){B,} (A,/G,/A,){B,} (A,/G,/A,) | G3 F/E/ FE/D/ | %139
{B,} (A,/G,/A,){B,} (A,/G,/A,){B,} (A,/G,/A,) | g3 f/e/ fe/d/ | a3 g/f/ gf/e/ | b3 a/g/ ag/f/ | %143
 e2 z/ (A/=B/^c/ d/e/f/g/) | ab ^ca Aa | D2 z/ (A/=B/^c/ d/e/f/g/) | ab ^ca Aa | !fermata!D6 |] %148
V:2
 x6 | x6 | x6 | x6 | x6 | x6 | x6 | x6 | x6 | x6 | x6 | x6 | x6 | x6 | x6 | x6 | x6 | x6 | x6 | %19
 x6 | x6 | x6 | x6 | x6 | x6 | x6 | x6 | x6 | x6 | x6 | x6 | x6 | x6 | x6 | x6 | x6 | x6 | x6 | %38
 x6 | x6 | x6 | x6 | x6 | x6 | x6 | x6 | x6 | x6 | x6 | x6 | x6 | x6 | x6 | x6 | x6 | x6 | x6 | %57
 x6 | x6 | x6 | x6 | x6 | x6 | x6 | x6 | x6 | x6 | x6 | x6 | x6 | x6 | x6 | x6 | x6 | x6 | x6 | %76
 x6 | x6 | x6 | x6 | x6 | x6 | x6 | x6 | x6 | x6 | x6 | x6 | x6 | x6 | x6 | x6 | x6 | x6 | x6 | %95
 x6 | x6 | x6 | x6 | x6 | x6 | x6 | x6 | x6 | x6 | x6 | x6 | x6 | x6 | x6 | x6 | x6 | x6 | x6 | %114
 x6 | x6 | x6 | x6 | x6 | x6 | x6 | x6 | x6 | x6 | x6 | x6 | x6 | x6 | x6 | x6 | x6 | x6 | x2 A4 | %133
 x6 | x6 | x6 | x6 | x6 | x6 | x6 | x6 | x6 | x6 | x6 | x6 | x6 | x6 | x6 |] %148

